X:1
T:Regina coeli - Aichinger
T:#
%%score { 1 | 2 } 3
L:1/8
Q:1/4=220
M:none
K:F
V:1 treble nm="Soprano I" snm="S"
V:2 treble 
V:3 treble-8 nm="Tenor" snm="T"
V:1
"^Regina coeli""^Gregor Aichinger\n (1564-1628)" F8 G4 F4 | G8 A8 | z16 | z4 C4 (F2 G2 A2 F2 | %4
w: Re- gi- na|coe- li||lae- ta\- * * *|
 G2 F2 G2 A2 B2 A2 A2 GF) |[M:4/2] G8 F4 c4 | B4 G4 (A2 B2 c2 d2 | c2 B2 A2 G2 F2 E2 D4) | %8
w: |* re. Al-|le- lu- ia, * * *||
 (G2 A2 B2 A2 G2 F2 E2 D2) | (C4 F2 G2 A2 B2 c2 A2 | =B2) (c4 B2) c8 | z8 z2 G2 (A2 B2 | %12
w: Al\- * * * * * * *|le\- * * * * * *|* lu\- * ia,|al- le\- *|
 c2 B2 A2 G2 F2 G2 B2 A2 | G2 F2 E2 D2 C4) F4- | F2 ED E4 F8 | z4 C4 F4 G4 | A4 F4 G8 | F8 z8 | %18
w: |* * * * * lu\-|* * * * ia.|Qui- a quem|me- ru- i-|sti,|
 z4 F4 c4 c4 | d8 c8 | B8 A4 F4 | G8 A4 F4 | A4 c8 B2 A2 | B8 A4 F4- | (F4 E2 D2 E4) F4 | %25
w: qui- a quem|me- ru-|i- sti por-|ta- re. Al-|le- lu\- * *|* ia, al\-|* * * * le-|
 D8 C4 C4 | D4 E4 F4 E4 | D8 C6 D2 | E2 F2 G6 F2 F4- | F4 E4 F4 A4 | F4 G4 A4 (c4- | %31
w: lu- ia, al-|le- lu- ia, al-|le- lu\- *||* * ia, al-|le- lu- ia, Al\-|
 c2 A2 B4) (c4 B2 A2 | G2 A2 B6 A2 G2 F2 | G4) G4 A8 | d12 c4 | d16 | c16 || B8 c8 | d8 c8 | z16 | %40
w: * * * le\- * *||* lu- ia,|al- le-|lu-|ia.|Re- sur-|re- xit,||
 B12 A4 | (G8 F6 G2 | A2 B2 c8 =B4) | c8 z8 | B8 c8 | d8 c8 | d12 c4 | B8 A4 A4 | %48
w: si- cut|di\- * *||xit,|Re- sur-|re- xit,|si- cut|di- xit, Al-|
 (G2 F2 G2 A2 B2 A2 A4- | A4) G4 A4 f4 | (e2 d2 e2 c2) (d2 c2 B2 A2 | B8) A4 A4 | F4 G4 A4 c4- | %53
w: le\- * * * * * *|* lu- ia, al-|le\- * * * lu\- * * *|* ia, al-|le- lu- ia, al\-|
 c2 A2 B4 c4 A4 | B4 c4 F4 c4- | c4 A4 B8 | A8 z4 C4 | D4 E4 F4 D4 | E8 F8 | z16 | z4 f4 e4 c4 | %61
w: * le- lu- ia, al-|le- lu- ia, al\-|* le- lu-|ia. O-|ra pro no- bis|De- um.||Al- le- lu-|
 d8 c8 | B4 G4 (A2 B2 c2 B2 | A2 G2 F2 E2 D4) G2 A2 | B2 A2 G2 F2 E2 D2 C4 | F2 G2 A2 B2 c4 A4 | %66
w: ia, al-|le- lu- ia, * * *|* * * * * al\- *||* * * * * le-|
 d8 c4 G4 | (A2 B2 c2 B2 A2 G2 F2 G2) | (A2 B2 c2 B2 A2 G2 F2 A2 | B2 A2 G2 F2 E4 A4) | G8 A8 | %71
w: lu- ia, al-|le\- * * * * * * *|||lu- ia,|
 d12 c4 | d16 | c16 |] %74
w: al- le-|lu-|ia.|
V:2
 z16 | z4 C4 (F2 G2 A2 F2 | G2 F2 G2 A2 B2 A2 A2 GF | G8) F8 | z8 z4 c4 |[M:4/2] B4 G4 A4 A4 | %6
w: |Lae- ta\- * * *||* re.|Al-|le- lu- ia, al-|
 D4 E4 (F2 G2 A2 B2 | A2 G2 F2 E2 D4) (G2 A2 | B2 A2 G2 F2 E2 D2 C4 | F2 G2 A2 B2 c4) A4 | %10
w: le- lu- ia, * * *|* * * * * al\- *||* * * * * le-|
 d8 c4 G4 | (A2 B2 c2 B2 A2 G2 F2 G2 | A2 B2 c2 B2 A2 G2 F2 A2 | B2 A2 G2 F2 E4 A4) | G8 A4 F4 | %15
w: lu- ia, al-|le\- * * * * * * *|||lu- ia. Qui-|
 c4 c4 d8 | c8 B8 | A4 F4 G8 | F8 z4 C4 | F4 G4 A4 F4 | G4 E4 F4 (D4- | D4 E4) F4 (F4- | %22
w: a quem me-|ru- i-|sti por- ta-|re, qui-|a quem me- ru-|i- sti por- ta\-|* * re. Al\-|
 F4 E2 D2 E4) F4 | D8 C8 | z16 | z8 z4 A4 | F4 G4 A4 (c4- | c2 A2 B4) c4 B2 A2 | %28
w: * * * * le-|lu- ia,||al-|le- lu- ia, al\-|* * * le\- * *|
 G2 A2 B6 A2 G2 F2 | G4 G4 F4 C4 | D4 E4 F4 E4 | D8 C6 D2 | E2 F2 G6 F2 F4- | F4 E4 F8- | F8 F8- | %35
w: |* lu- ia, al-|le- lu- ia, al-|le\- * *||* lu- ia,|* al\-|
 F4 D4 B8 | A16 || z16 | z16 | B8 c8 | d8 c8 | z8 z4 f4- | f4 e4 d8 | c4 (A6 G2 F2 E2 | D4 G8) F4 | %45
w: * le- lu-|ia.|||Re- sur-|re- xit,|si\-|* cut di-|xit, si\- * * *|* * cut|
 B8 A4 F4- | F4 D4 (G2 F2 F4- | F4 E4) F8 | z16 | z8 z4 F4 | G2 F2 G2 A2 B2 A2 A4- | A4 G4 A4 F4- | %52
w: di- xit, si\-|* cut di\- * *|* * xit,||al-|le\- * * * * * *|* lu- ia, al\-|
 F2 D2 E4 F8 | z4 G4 E4 F4 | G4 A6 F2 G4 | A4 F6 D2 E4 | F8 c8 | F4 G4 A4 B4 | G8 A4 F4 | %59
w: * le- lu- ia,|al- le- lu-|ia, al- le- lu-|ia, al- le- lu-|ia. O-|ra pro no- bis|De- um, o-|
 A4 B4 c4 A4 | =B8 c8 | z4 G4 E4 C4 | D4 E4 F2 G2 A2 B2 | c2 B2 A2 G2 F2 E2 D4 | %64
w: ra pro no- bis|De- um.|Al- le- lu-|ia, * * * * *||
 G2 A2 B2 A2 G2 F2 E2 D2 | C4 (F2 G2 A2 B2 c2 A2 | =B2) (c4 B2) c8 | z8 z2 G2 (A2 B2) | %68
w: al\- * * * * * * *|* le\- * * * * *|* lu\- * ia,|al- le\- *|
 c2 B2 A2 G2 F2 G2 B2 A2 | G2 F2 E2 D2 C4 (F4- | F2 ED E4) F8- | F8 z4 F4- | F4 D4 B8 | A16 |] %74
w: |* * * * * lu\-|* * * * ia,|* al\-|* le- lu-|ia.|
V:3
 z16 | z8 z4 F4 | (c2 d2 e2 c2 d2 c2 f4- | f2 ed e4) f4 F4 | (c2 d2 e2 c2 d2 c2 f4-) | %5
w: |Lae-|ta\- * * * * * *|* * * * re, lae-|ta\- * * * * * *|
[M:4/2][K:treble-8] (f2 ed e4) f4 F4 | (G8 F8) | F8 B8 | G8 (c6 B2 | A2 G2 F8 A4 | G8) c8 | %11
w: * * * * re, lae-|ta\- *|re. Al-|le- lu\- *||* ia,|
 z2 G2 (A2 B2 c2 B2 A2 G2 | F8) F8 | G8 A4 F4 | c8 F8- | F8 z8 | z16 | z4 F4 c4 c4 | d8 c8 | %19
w: al- le\- * * * * *|* lu-|ia, al- le-|lu- ia.|||Qui- a quem|me- ru-|
 (B8 A8 | G8) A4 B4 | G8 F8- | F8 z8 | z8 F8 | A4 (c8 B2 A2 | B8) A8 | z8 z4 A4 | F4 G4 A4 (c4- | %28
w: i\- *|* sti por-|ta- re.||Al-|le- lu\- * *|* ia,|al-|le- lu- ia, al\-|
 c4 B2 A2 G4) A4 | (B4 c4) F8 | z8 z4 A4 | F4 G4 A4 (c4- | c4 B2 A2 G4) A4 | (B4 c4) F8 | B12 A4 | %35
w: * * * * le-|lu\- * ia,|al-|le- lu- ia, al\-|* * * * le-|lu\- * ia,|al- le-|
 B16 | F16 || z16 | B8 c8 | d8 c8 | z8 f8- | f4 e4 d8 | c8 z8 | z8 F8 | G8 A8 | G8 z8 | B12 A4 | %47
w: lu-|ia.||Re- sur-|re- xit,|si\-|* cut di-|xit,|Re-|sur- re-|xit,|si- cut|
 G8 F4 f4 | (e2 d2 e2 c2 d2 c2 B2 A2 | B4) B4 A4 d4- | d4 c4 (B4 c4 | d4 e4) f4 F4 | B4 G4 F4 A4 | %53
w: di- xit, al-|le\- * * * * * * *|* lu- ia, al\-|* le lu\- *|* * ia, al-|le- lu- ia, al-|
 F4 G4 A8 | z4 f4 d4 e4 | f4 F4 B4 G4 | F16 | z16 | z8 f8 | c4 d4 e4 f4 | d8 c4 c4 | B4 G4 A8 | %62
w: le- lu- ia,|al- le- lu-|ia, al- le- lu-|ia.||O-|ra pro no- bis|De- um. Al-|le- lu- ia,|
 G8 F8- | F8 B8 | G8 (c6 B2 | A2 G2 F8) A4 | G8 c8 | z2 G2 (A2 B2 c2 B2 A2 G2) | F8 F8 | G8 A4 F4 | %70
w: al- le\-|* lu-|ia, al\- *|* * * le-|lu- ia,|al- le\- * * * * *|* lu-|ia, al- le-|
 c8 F8 | B12 A4 | B16 | F16 |] %74
w: lu- ia,|al- le-|lu-|ia.|

